src/assets/filled/BookSquare.svg

<?xml version="1.0" encoding="UTF-8"?>
<svg width="24" height="24" viewBox="0 0 24 24" xmlns="http://www.w3.org/2000/svg">
 <path d="m16.19 2h-8.38c-3.64 0-5.81 2.17-5.81 5.81v8.37c0 3.65 2.17 5.82 5.81 5.82h8.37c3.64 0 5.81-2.17 5.81-5.81v-8.38c0.01-3.64-2.16-5.81-5.8-5.81zm-4.69 15.25c0 0.36-0.36 0.6-0.69 0.46-1.21-0.52-2.79-1-3.89-1.14l-0.19-0.02c-0.61-0.08-1.11-0.65-1.11-1.27v-7.7c0-0.77 0.62-1.34 1.38-1.28 1.25 0.1 3.1 0.7 4.26 1.36 0.16 0.09 0.24 0.26 0.24 0.43v9.16zm6.88-1.98c0 0.62-0.5 1.19-1.11 1.27l-0.21 0.02c-1.09 0.15-2.66 0.62-3.87 1.13-0.33 0.14-0.69-0.1-0.69-0.46v-9.15c0-0.18 0.09-0.35 0.25-0.44 1.16-0.65 2.97-1.23 4.2-1.34h0.04c0.77 0 1.39 0.62 1.39 1.39v7.58z"/>
</svg>

<svg width="24" height="24" viewBox="0 0 24 24"  xmlns="http://www.w3.org/2000/svg">
<path d="M16.19 2H7.81C4.17 2 2 4.17 2 7.81V16.18C2 19.83 4.17 22 7.81 22H16.18C19.82 22 21.99 19.83 21.99 16.19V7.81C22 4.17 19.83 2 16.19 2ZM11.5 17.25C11.5 17.61 11.14 17.85 10.81 17.71C9.6 17.19 8.02 16.71 6.92 16.57L6.73 16.55C6.12 16.47 5.62 15.9 5.62 15.28V7.58C5.62 6.81 6.24 6.24 7 6.3C8.25 6.4 10.1 7 11.26 7.66C11.42 7.75 11.5 7.92 11.5 8.09V17.25ZM18.38 15.27C18.38 15.89 17.88 16.46 17.27 16.54L17.06 16.56C15.97 16.71 14.4 17.18 13.19 17.69C12.86 17.83 12.5 17.59 12.5 17.23V8.08C12.5 7.9 12.59 7.73 12.75 7.64C13.91 6.99 15.72 6.41 16.95 6.3H16.99C17.76 6.3 18.38 6.92 18.38 7.69V15.27Z" />
</svg>
